public/illustration/Logonav.svg

<svg width="168" height="48" viewBox="0 0 168 48" fill="none" xmlns="http://www.w3.org/2000/svg">
<g clip-path="url(#clip0_745_5357)">
<path d="M7.28687 10.3318L31.7387 8.75128C32.1578 8.72447 32.5705 8.86528 32.8858 9.14272C33.2012 9.42017 33.3934 9.81153 33.4202 10.2307C33.447 10.6499 33.3062 11.0625 33.0288 11.3779C32.7513 11.6932 32.36 11.8855 31.9408 11.9123C31.5916 11.9368 7.60542 10.3318 7.28687 10.3318Z" fill="white"/>
<path d="M0 28.3477L24.4518 26.7642C24.8615 26.754 25.2592 26.9028 25.5616 27.1793C25.8641 27.4558 26.0478 27.8387 26.0743 28.2476C26.1009 28.6566 25.9681 29.0599 25.7039 29.3732C25.4397 29.6865 25.0646 29.8854 24.657 29.9282C24.3048 29.9527 0.306298 28.3477 0 28.3477Z" fill="white"/>
<path d="M9.39111 18.991L28.2315 17.4074C28.6523 17.3737 29.0693 17.5085 29.3907 17.7823C29.712 18.056 29.9115 18.4461 29.9453 18.8669C29.979 19.2877 29.8441 19.7047 29.5704 20.0261C29.2967 20.3475 28.9065 20.547 28.4857 20.5807C28.397 20.5868 28.308 20.5868 28.2193 20.5807L9.39111 18.991Z" fill="white"/>
<path d="M58.3559 17.1688C57.2137 18.3524 55.7686 19.1999 54.178 19.6191C55.5396 19.9012 56.7579 20.6551 57.6177 21.7479C58.4464 22.8423 58.8785 24.186 58.8429 25.5583C58.8414 26.0369 58.7984 26.5144 58.7143 26.9856C58.5407 28.2005 58.1218 29.3673 57.4831 30.4152C56.8444 31.463 55.9992 32.37 54.9989 33.0809C52.9569 34.5512 50.3023 35.2873 47.0351 35.2894H31.9224L37.3347 4.76367H51.9696C54.7385 4.76367 56.8887 5.31909 58.4202 6.42993C59.9517 7.54078 60.7164 9.12128 60.7144 11.1714C60.7137 11.6846 60.6707 12.1968 60.5858 12.7029C60.315 14.384 59.537 15.9422 58.3559 17.1688ZM50.3217 25.157C50.3421 24.8439 50.2894 24.5303 50.1676 24.2411C50.0459 23.9519 49.8585 23.695 49.6203 23.4907C49.1455 23.0987 48.4441 22.9057 47.5221 22.9057H42.6214L41.6565 28.4865H46.594C48.7014 28.4865 49.9266 27.5778 50.2696 25.7604C50.3065 25.5614 50.3239 25.3594 50.3217 25.157ZM51.6663 13.5973C51.6663 12.2088 50.7566 11.5155 48.9372 11.5175H44.6491L43.6965 16.9298H47.9846C50.092 16.9298 51.3039 16.0354 51.6204 14.2467C51.6565 14.0322 51.6719 13.8147 51.6663 13.5973Z" fill="white"/>
<path d="M72.0567 10.9965L67.7686 35.289H59.2412L63.5723 10.9965H72.0567ZM65.1099 7.74972C64.7402 7.43911 64.445 7.04937 64.2462 6.60933C64.0474 6.16929 63.95 5.69019 63.9613 5.20745C63.9581 4.29356 64.221 3.3985 64.7178 2.63148C65.2349 1.82747 65.9514 1.1711 66.7976 0.726302C67.7091 0.238644 68.7289 -0.0110448 69.7626 0.000374823C71.0919 0.000374823 72.1374 0.339345 72.899 1.01729C73.2722 1.34176 73.5687 1.74493 73.7673 2.19777C73.966 2.65061 74.0617 3.14185 74.0477 3.63614C74.0524 4.54399 73.7881 5.43291 73.288 6.19066C72.7667 6.98698 72.0425 7.62984 71.1899 8.05296C70.2782 8.51866 69.267 8.7562 68.2433 8.74519C66.9201 8.74519 65.8756 8.41337 65.1099 7.74972Z" fill="white"/>
<path d="M86.3455 11.692C87.7328 11.013 89.2608 10.6709 90.8052 10.6934C93.3454 10.6934 95.3874 11.5306 96.9311 13.2051C98.4749 14.8795 99.2447 17.1747 99.2406 20.0907C99.232 21.1056 99.1449 22.1184 98.9803 23.1199C98.5817 25.4654 97.7162 27.7069 96.4349 29.7115C95.3039 31.4942 93.7687 32.9853 91.9538 34.064C90.2859 35.058 88.3821 35.5868 86.4404 35.5955C84.7946 35.5955 83.4316 35.2626 82.3513 34.5969C81.3022 33.9724 80.476 33.0337 79.9898 31.9138L77.3495 46.8948H68.8528L75.1748 10.9967H83.6623L83.0497 14.3659C83.9296 13.2345 85.057 12.3197 86.3455 11.692ZM90.4591 21.8672C90.4591 20.6808 90.1201 19.7619 89.4422 19.1105C89.0947 18.7775 88.6838 18.5178 88.2339 18.3467C87.784 18.1757 87.3043 18.0969 86.8233 18.115C85.5621 18.1215 84.3492 18.6002 83.4234 19.4566C82.3651 20.4142 81.6822 21.7171 81.4968 23.1322C81.4139 23.5354 81.3708 23.9458 81.3681 24.3574C81.3681 25.5703 81.7071 26.5158 82.385 27.1937C82.7314 27.5277 83.1424 27.7875 83.5927 27.9571C84.043 28.1267 84.5232 28.2025 85.0039 28.18C86.2767 28.1798 87.501 27.692 88.4252 26.817C89.4695 25.8401 90.1428 24.5314 90.3304 23.1138C90.4138 22.7035 90.4569 22.2859 90.4591 21.8672Z" fill="white"/>
<path d="M126.48 18.2771C125.337 19.4615 123.891 20.3092 122.299 20.7275C123.662 21.0048 124.882 21.757 125.741 22.8502C126.57 23.9446 127.002 25.2882 126.967 26.6605C126.965 27.1391 126.922 27.6167 126.838 28.0879C126.666 29.3027 126.249 30.4698 125.612 31.5182C124.975 32.5666 124.131 33.4744 123.132 34.1863C121.09 35.6606 118.435 36.3967 115.168 36.3947H100.046L105.458 5.87207H120.093C122.862 5.87207 125.013 6.42749 126.544 7.53833C128.075 8.64917 128.84 10.2297 128.838 12.2798C128.837 12.7879 128.794 13.295 128.71 13.796C128.442 15.4825 127.664 17.0465 126.48 18.2771ZM118.445 26.2654C118.464 25.9509 118.409 25.6363 118.286 25.3466C118.162 25.0568 117.972 24.7999 117.732 24.5961C117.257 24.2071 116.556 24.0141 115.634 24.0141H110.733L109.78 29.5979H114.718C116.825 29.5979 118.05 28.6893 118.393 26.8719C118.43 26.6719 118.448 26.4688 118.445 26.2654ZM119.79 14.7026C119.79 13.3182 118.88 12.6259 117.061 12.6259H112.773L111.82 18.0382H116.108C118.216 18.0382 119.428 17.1428 119.744 15.352C119.78 15.1375 119.796 14.9201 119.79 14.7026Z" fill="#FDC300"/>
<path d="M140.181 12.1055L135.892 36.3949H127.365L131.708 12.1055H140.181ZM133.24 8.85872C132.869 8.54637 132.573 8.15457 132.374 7.71237C132.175 7.27016 132.079 6.78888 132.091 6.30419C132.088 5.3903 132.351 4.49525 132.848 3.72822C133.365 2.93063 134.079 2.27976 134.921 1.83836C135.834 1.35496 136.854 1.1095 137.886 1.12469C139.216 1.12469 140.262 1.46366 141.026 2.1416C141.399 2.46607 141.696 2.86924 141.894 3.32208C142.093 3.77492 142.189 4.26617 142.175 4.76045C142.179 5.66831 141.915 6.55722 141.415 7.31498C140.893 8.11051 140.169 8.75316 139.317 9.17727C138.405 9.64297 137.394 9.88051 136.37 9.8695C135.045 9.85929 134.001 9.52236 133.24 8.85872Z" fill="#FDC300"/>
<path d="M154.469 12.7972C155.857 12.1208 157.385 11.7798 158.929 11.8018C161.467 11.8018 163.509 12.639 165.055 14.3134C166.601 15.9879 167.374 18.2831 167.374 21.199C167.365 22.214 167.278 23.2267 167.113 24.2283C166.713 26.5787 165.845 28.8245 164.559 30.8321C163.428 32.6148 161.892 34.1059 160.078 35.1846C158.408 36.1723 156.504 36.6948 154.564 36.6977C152.92 36.6977 151.557 36.3659 150.475 35.7022C149.426 35.0777 148.6 34.139 148.114 33.0191L145.473 48.0001H136.977L143.299 12.105H151.786L151.173 15.4743C152.053 14.342 153.181 13.4262 154.469 12.7972ZM158.583 22.9725C158.583 21.7902 158.244 20.8713 157.566 20.2158C157.218 19.8828 156.808 19.623 156.358 19.452C155.908 19.281 155.428 19.2022 154.947 19.2203C153.686 19.2268 152.473 19.7054 151.547 20.5619C150.488 21.519 149.805 22.8221 149.621 24.2375C149.538 24.6407 149.495 25.0511 149.492 25.4627C149.492 26.6756 149.831 27.6211 150.509 28.299C150.853 28.6385 151.262 28.9039 151.713 29.0788C152.163 29.2537 152.645 29.3344 153.128 29.3159C154.4 29.3151 155.624 28.8274 156.549 27.9529C157.593 26.976 158.267 25.6673 158.454 24.2497C158.539 23.8293 158.583 23.4015 158.583 22.9725Z" fill="#FDC300"/>
</g>
<defs>
<clipPath id="clip0_745_5357">
<rect width="167.374" height="48" fill="white"/>
</clipPath>
</defs>
</svg>

<svg xmlns="http://www.w3.org/2000/svg" width="168" height="48" fill="none" viewBox="0 0 168 48"><g clip-path="url(#a)"><path fill="#fff" d="m7.287 10.332 24.452-1.58a1.584 1.584 0 1 1 .202 3.16c-.35.025-24.336-1.58-24.654-1.58M0 28.348l24.452-1.584a1.586 1.586 0 0 1 .205 3.164c-.352.025-24.35-1.58-24.657-1.58m9.391-9.357 18.84-1.584a1.592 1.592 0 1 1-.012 3.174zm48.965-1.822a9 9 0 0 1-4.178 2.45 5.9 5.9 0 0 1 3.44 2.129 6.05 6.05 0 0 1 1.225 3.81 8.3 8.3 0 0 1-.129 1.428A9.05 9.05 0 0 1 55 33.08q-3.063 2.205-7.964 2.208H31.922l5.413-30.525H51.97q4.153 0 6.45 1.666t2.294 4.741q0 .772-.128 1.532a8.35 8.35 0 0 1-2.23 4.466m-8.034 7.988a2.02 2.02 0 0 0-.702-1.666c-.474-.392-1.176-.585-2.098-.585h-4.9l-.965 5.58h4.937q3.161 0 3.676-2.726.055-.298.052-.603m1.344-11.56q0-2.082-2.729-2.08H44.65l-.953 5.413h4.289q3.16 0 3.635-2.683.055-.323.046-.65m20.39-2.599-4.288 24.292H59.24l4.331-24.293zM65.11 7.75a3.22 3.22 0 0 1-1.149-2.543 4.7 4.7 0 0 1 .757-2.576 5.53 5.53 0 0 1 2.08-1.905A6.14 6.14 0 0 1 69.763 0q1.993 0 3.136 1.017a3.34 3.34 0 0 1 1.149 2.62 4.6 4.6 0 0 1-.76 2.554 5.35 5.35 0 0 1-2.098 1.862 6.3 6.3 0 0 1-2.947.692q-1.984 0-3.133-.995m21.236 3.942a9.8 9.8 0 0 1 4.46-.999q3.81 0 6.125 2.512t2.31 6.886a20 20 0 0 1-.26 3.029 17.8 17.8 0 0 1-2.546 6.592 13.44 13.44 0 0 1-4.481 4.352 10.87 10.87 0 0 1-5.514 1.532q-2.467 0-4.089-1a5.82 5.82 0 0 1-2.361-2.682l-2.64 14.98h-8.497l6.322-35.897h8.487l-.612 3.369a9.4 9.4 0 0 1 3.296-2.674m4.113 10.175q0-1.779-1.017-2.757a3.6 3.6 0 0 0-2.619-.995 5.05 5.05 0 0 0-3.4 1.342 6 6 0 0 0-1.926 3.675 6.3 6.3 0 0 0-.129 1.225q0 1.82 1.017 2.837a3.54 3.54 0 0 0 2.619.986 4.98 4.98 0 0 0 3.421-1.363 6.18 6.18 0 0 0 1.905-3.703q.126-.617.13-1.247"/><path fill="#fdc300" d="M126.48 18.277a9 9 0 0 1-4.181 2.45 5.86 5.86 0 0 1 3.442 2.123 6.05 6.05 0 0 1 1.226 3.81 8.3 8.3 0 0 1-.129 1.428 9.05 9.05 0 0 1-3.706 6.098q-3.063 2.212-7.964 2.209h-15.122l5.412-30.523h14.635q4.154 0 6.451 1.666 2.297 1.667 2.294 4.742a9 9 0 0 1-.128 1.516 8.35 8.35 0 0 1-2.23 4.481m-8.035 7.988a2.04 2.04 0 0 0-.713-1.669q-.714-.583-2.098-.582h-4.901l-.953 5.584h4.938q3.16 0 3.675-2.726.056-.3.052-.607m1.345-11.562q0-2.077-2.729-2.077h-4.288l-.953 5.412h4.288q3.162 0 3.636-2.686.055-.323.046-.65m20.391-2.596-4.289 24.289h-8.527l4.343-24.29zm-6.941-3.247a3.23 3.23 0 0 1-1.149-2.555 4.7 4.7 0 0 1 .757-2.576 5.53 5.53 0 0 1 2.073-1.89 6.14 6.14 0 0 1 2.965-.713q1.995 0 3.14 1.017a3.34 3.34 0 0 1 1.149 2.618 4.6 4.6 0 0 1-.76 2.555 5.4 5.4 0 0 1-2.098 1.862 6.3 6.3 0 0 1-2.947.693q-1.988-.016-3.13-1.011m21.229 3.938a9.86 9.86 0 0 1 4.46-.995q3.807 0 6.126 2.511t2.319 6.886a20 20 0 0 1-.261 3.03 17.8 17.8 0 0 1-2.554 6.603 13.45 13.45 0 0 1-4.481 4.353 10.86 10.86 0 0 1-5.514 1.513q-2.466 0-4.089-.996a5.8 5.8 0 0 1-2.361-2.683L145.473 48h-8.496l6.322-35.895h8.487l-.613 3.37a9.4 9.4 0 0 1 3.296-2.678m4.114 10.176q0-1.774-1.017-2.757a3.6 3.6 0 0 0-2.619-.996 5.05 5.05 0 0 0-3.4 1.342 6 6 0 0 0-1.926 3.675 6.3 6.3 0 0 0-.129 1.226q0 1.82 1.017 2.836a3.53 3.53 0 0 0 2.619 1.017 5 5 0 0 0 3.421-1.363 6.18 6.18 0 0 0 1.905-3.703c.085-.42.129-.849.129-1.277"/></g><defs><clipPath id="a"><path fill="#fff" d="M0 0h167.374v48H0z"/></clipPath></defs></svg>
